X:5900
T:Gan Ainm
M:6/8
L:1/8
K:G Major
gfg a2g|f2A ABc|efe d2c|B2G GBd|!
gfg a2g|f2A ABc|ded cBA|G3 G3:|!
GBd g3|f2d c3|ded c2A|e2d B3|!
GBd g3|f2d c2B|ABc def|g3 g3:|!
